X: 45
T:Mug of Bro
T:Clare Jig
R:Jig
Z:Seattle
M:6/8
L:1/8
Q:3/8=120
K:Ador
g/f/|eAA fAA|gfg age|dBA ~G3|BGB dBd|
eAA fAA|gfg age|dBd gdB|ABA A2:|
e|efg ~a3|aba age|dBd ~g3|gag ged|
efg ~a3|aba age|dBd gdB|ABA A2:|
